X: 8232
T: Copperplate, The
R: reel
M: 4/4
K: Adorian
|:A,3B, CDEF|G2 G,A, B,CDG|EA A/A/A ^CDEF|GFGB cdcB|
Aeee cdec|dBAB GA B/c/d|ecdB cABG|1 AEGE DCB,C:|2 E/F/G AB cBAB||
|:cBAB3cc|cBAB cBAc|BAGA B2 B/B/B|dcBc dcBd|
cBAB3cc|cBAB cABG|ABcd efge|1 aged cAAB:|2 aged cA B/c/d||
|:eaaa eada|^cA A/A/B cdef|dg g/f/g dgcg|BG G/G/A Bcdg|
eaaa eada|^cA A/A/B cdef|dggg bgad|1 ecdB ABcd:|2 ecdB A2 A/A/A||

